X: 33
T: The House in Rose Valley
R:Waltz
C:Phil Cunningham
M:3/4
L:1/4
K:EMin
B2 E| E3| B2 A| B/(d/d2)|B2 d| e2 (3B/A/G/|A2 F|F2 B| E2 E| e2 d|
B2 A| B/(d/d2)|F2A| B2 d|B2 A| F/(E/E2) :|
|: F2 A| E2 E| D3/ E/ F| A/(B/B2)| E2 E| e2 d| B2 F|A/(e/e) d|
B2 E|E3|B2 A|B/(d/d2)| B2d| e2 (3B/A/G/| A/(F/F2)| E3 :|

%%sep 2 1 500

